X: 3
T: No_12_The_Dancers_Approach_the_Lodge_(b).krn
N: Derived from No_12_The_Dancers_Approach_the_Lodge_(b).krn
%%abc-version 2.0
%%abcx-abcm2ps-target-version 5.9.1 (29 Sep 2008)
%%abc-creator hum2abc beta
%%abcx-conversion-date 2019/03/15 08:35:00
%%humdrum-veritas 3329952725
%%humdrum-veritas-data 1694110618
%%linebreak <none>
%%barnumbers 0
L: 1/16
M: 3/4
K: G clef=bass
[K:clef=bass][M:3/4](3F,2F,2F,2 G,3F, D,2F, z | 
G,3F, (3D,2F,2F,2 D,D,C, z | 
(3F,2F,2F,2 G,3F, D,2F, z | 
G,3F, (3D,2F,2F,2 D,D,C, z | 
C4A,G,3 D,2F, z | 
G,3F, (3D,2F,2F,2 D,D,C, z | 
C4A,(G,3 D,2)F, z | 
G,3F, (3D,2F,2F,2 D,D,C, z |]  



